X:206
T: Geng nong ge
N: C1698
O: China, Taiwan, Hengchun
S: IV, 625]
R: Xiaodiao, Taidong diao. Nongmin shenghuo]
M: 2/4
L: 1/16
K: G
E2E4GA | B6A2 | G2E2G2A2 | B,8
D2B,4B,D | E6G2 | A2B2GAGD | E8
B2B4Bd | e6d2 | B2A2G2A2 | B8
D2B,4B,D | E6G2 | A2B2GAGD | E8

